public/static/img/crypto1/ETC.svg

<svg width="32" height="32" viewBox="0 0 32 32" fill="none" xmlns="http://www.w3.org/2000/svg">
<g clip-path="url(#clip0_696_7370)">
<path d="M31.9714 15.9946C31.9714 24.7875 24.8438 31.915 16.051 31.915C7.25843 31.915 0.130554 24.7875 0.130554 15.9946C0.130554 7.20194 7.25843 0.0742188 16.051 0.0742188C24.8438 0.0742188 31.9714 7.20194 31.9714 15.9946Z" fill="#659172"/>
<path d="M9.8208 17.9272L15.9532 20.9978V25.9353L9.8208 17.9272ZM22.4823 17.9272L16.328 25.9354V20.9978L22.4823 17.9272Z" fill="white"/>
<path d="M22.8972 14.2269L16.132 3.52393L9.17139 14.2269L16.132 11.3416L22.8972 14.2269ZM9.44533 17.1751L16.2106 27.6539L23.1712 17.1751L16.2106 21.3412L9.44533 17.1751Z" fill="white"/>
<path d="M23.1711 15.7995L16.1317 12.8667L9.17114 15.7995L16.1317 19.9682L23.1711 15.7995Z" fill="white"/>
</g>
<defs>
<clipPath id="clip0_696_7370">
<rect width="32" height="32" fill="white"/>
</clipPath>
</defs>
</svg>

<svg width="32" height="32" fill="none" xmlns="http://www.w3.org/2000/svg"><g clip-path="url(#a)"><path d="M31.971 15.995c0 8.793-7.127 15.92-15.92 15.92S.131 24.788.131 15.995 7.258.075 16.05.075s15.92 7.127 15.92 15.92Z" fill="#659172"/><path d="m9.82 17.927 6.133 3.07v4.938l-6.132-8.008Zm12.662 0-6.154 8.008v-4.937l6.154-3.07Z" fill="#fff"/><path d="M22.897 14.227 16.132 3.524l-6.96 10.703 6.96-2.885 6.765 2.885ZM9.445 17.175l6.766 10.479 6.96-10.479-6.96 4.166-6.766-4.166Z" fill="#fff"/><path d="m23.171 15.8-7.04-2.933-6.96 2.932 6.96 4.17 7.04-4.17Z" fill="#fff"/></g><defs><clipPath id="a"><path fill="#fff" d="M0 0h32v32H0z"/></clipPath></defs></svg>
